X: 39
T:Blackthorn Stick, The
T:Coach Road to Sligo, The
T:Humours of Bantry, The
M:6/8
L:1/8
R:jig
K:G
d|"G"gfg "C"ege|"G"dBG "C"AGE|"G"DGG "C"FGA|"Am"BGB "D"A2e|
"G"gfg "C"age|"G"dBG "C"AGE|"G"DGG "D"FGA|"G"BGG G2::
d|"G"edd gdd|edd gdd|edd "Em"gfg|"C"edB "D"A2e|
"G"gfg "C"age|"G"dBG "C"AGE|"G"DGG "D"FGA|"G"BGG G2:|
